X: 19
T:Rhyfelgyrch Cabden Morgan
T:Captain Morgan's March
M:C
L:1/8
Q:150
C:Trad
S:51 Welsh Airs
R:March
A:Wales
H:From a facsimile c.1840: A Choice Collection of Fifty-One Welsh Airs
H:adapted for The Harp, Piano-Forte, Harpsichord,
H:Violin, or Flute by Edward Jones
H:"Harper to His Late Majesty King George IV, when
H:Prince of Wales".
Z:brian_martin12345@yahoo.com
K:G
"Maestoso"
D2G>GG3D|G>A B>AG4|c2c>d B2G2|A2A2A2z2:||!
{D}d2d2B2G2|(c>d) (c>B)A3z|(G>B) (A>G)F2(GA)|{AB}A3GG4:||
